storage/app/icons/phosphoricons/thin/selection-foreground-thin.svg

<svg xmlns="http://www.w3.org/2000/svg" fill="currentColor" viewBox="0 0 256 256"><path d="M60 216a4 4 0 0 1-4 4h-8a12 12 0 0 1-12-12v-8a4 4 0 0 1 8 0v8a4 4 0 0 0 4 4h8a4 4 0 0 1 4 4m52-4H96a4 4 0 0 0 0 8h16a4 4 0 0 0 0-8m-72-48a4 4 0 0 0 4-4v-16a4 4 0 0 0-8 0v16a4 4 0 0 0 4 4m128 32a4 4 0 0 0-4 4v8a4 4 0 0 1-4 4h-8a4 4 0 0 0 0 8h8a12 12 0 0 0 12-12v-8a4 4 0 0 0-4-4m0-88a4 4 0 0 0 4-4v-8a12 12 0 0 0-12-12h-8a4 4 0 0 0 0 8h8a4 4 0 0 1 4 4v8a4 4 0 0 0 4 4M56 84h-8a12 12 0 0 0-12 12v8a4 4 0 0 0 8 0v-8a4 4 0 0 1 4-4h8a4 4 0 0 0 0-8m152-48H96a12 12 0 0 0-12 12v40a4 4 0 0 0 4 4h24a4 4 0 0 0 0-8H92V48a4 4 0 0 1 4-4h112a4 4 0 0 1 4 4v112a4 4 0 0 1-4 4h-36v-20a4 4 0 0 0-8 0v24a4 4 0 0 0 3.51 3.95 2.2 2.2 0 0 0 .49.05h40a12 12 0 0 0 12-12V48a12 12 0 0 0-12-12"/></svg>

<svg xmlns="http://www.w3.org/2000/svg" viewBox="0 0 256 256" fill="currentColor"><path d="M60,216a4,4,0,0,1-4,4H48a12,12,0,0,1-12-12v-8a4,4,0,0,1,8,0v8a4,4,0,0,0,4,4h8A4,4,0,0,1,60,216Zm52-4H96a4,4,0,0,0,0,8h16a4,4,0,0,0,0-8ZM40,164a4,4,0,0,0,4-4V144a4,4,0,0,0-8,0v16A4,4,0,0,0,40,164Zm128,32a4,4,0,0,0-4,4v8a4,4,0,0,1-4,4h-8a4,4,0,0,0,0,8h8a12,12,0,0,0,12-12v-8A4,4,0,0,0,168,196Zm0-88a4,4,0,0,0,4-4V96a12,12,0,0,0-12-12h-8a4,4,0,0,0,0,8h8a4,4,0,0,1,4,4v8A4,4,0,0,0,168,108ZM56,84H48A12,12,0,0,0,36,96v8a4,4,0,0,0,8,0V96a4,4,0,0,1,4-4h8a4,4,0,0,0,0-8ZM208,36H96A12,12,0,0,0,84,48V88h0a4,4,0,0,0,4,4h24a4,4,0,0,0,0-8H92V48a4,4,0,0,1,4-4H208a4,4,0,0,1,4,4V160a4,4,0,0,1-4,4H172V144a4,4,0,0,0-8,0v24a4,4,0,0,0,3.51,3.95,2.17,2.17,0,0,0,.49.05h40a12,12,0,0,0,12-12V48A12,12,0,0,0,208,36Z"/></svg>
